X:74
T:John O'Groat's House
T:Taigh Iain Ghr\`ot
R:Reel
S:Simon Fraser Collection
N:No.195
O:Scottish
M:C|
L:1/8
K:C
Gc~cd e2 dc|B<Gdc BcdB|Gc~cd e2 dc|GcBc dB c2:|
Gfeg fagf|ecgc Bcdf|gfeg fagf|gefd BG c2|gfeg fagf|ecgc Bcdf|
ecBc GcEc|GEFD B,G, C2||

